brandFactory_export/1.Light/Camara videovigilancia_seguridad_1Light.svg

<?xml version="1.0" encoding="UTF-8"?>
<svg width="24px" height="24px" viewBox="0 0 24 24" version="1.1" xmlns="http://www.w3.org/2000/svg" xmlns:xlink="http://www.w3.org/1999/xlink">
    <title>1.Light/Camara videovigilancia_seguridad_1Light</title>
    <g id="Symbols" stroke="none" stroke-width="1" fill="none" fill-rule="evenodd">
        <g id="1.Light/Camara-videovigilancia_seguridad_1Light" fill="#5CB615" fill-rule="nonzero">
            <path d="M22.605042,8.77310924 L22.1579832,10.5277311 C22.1042017,10.7428571 21.8890756,10.8739496 21.6773109,10.8201681 C21.6739496,10.8201681 21.6739496,10.8201681 21.6705882,10.8168067 L20.5243697,10.5243697 L21.1697479,7.98655462 L22.3159664,8.2789916 C22.5277311,8.3394958 22.6588235,8.55462185 22.605042,8.77310924 L22.605042,8.77310924 Z M19.1697479,11.7680672 C19.0991597,12.0504202 18.8134454,12.2252101 18.5277311,12.1546218 L18.5210084,12.1546218 L3.40504202,8.30252101 C3.26722689,8.26890756 3.15294118,8.18151261 3.0789916,8.05714286 C3.00504202,7.93613445 2.98487395,7.79159664 3.01848739,7.65714286 L4.59831933,1.44537815 C4.67226891,1.15966387 4.96134454,0.988235294 5.24369748,1.05882353 L20.3630252,4.90420168 C20.6487395,4.97815126 20.8201681,5.26722689 20.7462185,5.54957983 C20.7495798,5.55294118 19.1697479,11.7680672 19.1697479,11.7680672 Z M3.35798319,22.1210084 C3.35798319,22.4134454 3.11932773,22.6521008 2.82689076,22.6521008 L1.5394958,22.6521008 C1.24369748,22.6487395 1.00840336,22.4134454 1.00840336,22.1176471 L1.00840336,15.6 C1.00840336,15.307563 1.24705882,15.0689076 1.5394958,15.0689076 L2.8302521,15.0689076 C3.12268908,15.0689076 3.36134454,15.307563 3.36134454,15.6 L3.36134454,22.1210084 L3.35798319,22.1210084 Z M23.4252101,7.95630252 C23.2369748,7.63361345 22.9243697,7.40168067 22.5613445,7.31092437 L21.4151261,7.01848739 L21.7243697,5.80168067 C21.9327731,4.97815126 21.4352941,4.14117647 20.6117647,3.92941176 L5.49243697,0.0806722689 C4.66890756,-0.127731092 3.83529412,0.369747899 3.62352941,1.19327731 L2.04369748,7.40840336 C1.94285714,7.80504202 2.00336134,8.22184874 2.21176471,8.57478992 C2.42352941,8.92773109 2.75630252,9.17647059 3.15630252,9.27731092 L10.6957983,11.1966387 L7.95630252,18.9579832 L4.39663866,18.9579832 C4.38319328,18.9579832 4.37647059,18.9647059 4.36302521,18.9647059 L4.36302521,15.6 C4.36302521,14.7529412 3.67394958,14.0605042 2.82689076,14.0605042 L1.5394958,14.0605042 C0.68907563,14.0605042 0,14.7529412 0,15.6 L0,22.1176471 C0,22.9647059 0.68907563,23.6537815 1.5394958,23.6537815 L2.8302521,23.6537815 C3.67731092,23.6537815 4.36638655,22.9647059 4.36638655,22.1176471 L4.36638655,19.9596639 C4.37983193,19.9596639 4.38655462,19.9663866 4.4,19.9663866 L8.31596639,19.9663866 C8.53109244,19.9663866 8.71932773,19.8319328 8.78991597,19.6302521 L11.6773109,11.4453782 L18.2756303,13.1260504 C19.0991597,13.3344538 19.9361345,12.8369748 20.1445378,12.0134454 L20.2722689,11.5058824 L21.4184874,11.794958 C22.1647059,11.989916 22.9310924,11.5428571 23.1260504,10.7932773 C23.1260504,10.7865546 23.1294118,10.7831933 23.1294118,10.7764706 L23.5764706,9.02184874 C23.6739496,8.65882353 23.6168067,8.27563025 23.4252101,7.95630252 Z" id="Camara-videovigilancia_seguridad_1Light"></path>
        </g>
    </g>
</svg>

<svg width="24" height="24" viewBox="0 0 24 24" xmlns="http://www.w3.org/2000/svg"><path d="M22.605 8.773l-.447 1.755a.397.397 0 01-.48.292c-.004 0-.004 0-.007-.003l-1.147-.293.646-2.537 1.146.292c.212.06.343.276.289.494zm-3.435 2.995a.53.53 0 01-.642.387h-.007L3.405 8.303a.521.521 0 01-.326-.246.524.524 0 01-.06-.4l1.58-6.212a.534.534 0 01.645-.386l15.119 3.845a.53.53 0 01.383.646c.004.003-1.576 6.218-1.576 6.218zM3.358 22.121a.532.532 0 01-.531.531H1.539a.533.533 0 01-.53-.534V15.6c0-.292.238-.531.53-.531H2.83c.293 0 .531.239.531.531v6.521h-.003zM23.425 7.956a1.39 1.39 0 00-.864-.645l-1.146-.293.31-1.216a1.543 1.543 0 00-1.113-1.873L5.492.081a1.54 1.54 0 00-1.868 1.112l-1.58 6.215c-.101.397-.04.814.168 1.167.212.353.544.601.944.702l7.54 1.92-2.74 7.761h-3.56c-.013 0-.02.007-.033.007V15.6c0-.847-.69-1.54-1.536-1.54H1.539C.69 14.06 0 14.754 0 15.6v6.518c0 .847.69 1.536 1.54 1.536h1.29c.847 0 1.536-.69 1.536-1.536V19.96c.014 0 .02.006.034.006h3.916a.5.5 0 00.474-.336l2.887-8.185 6.599 1.681c.823.208 1.66-.289 1.869-1.113l.127-.507 1.146.289a1.4 1.4 0 001.708-1.002c0-.006.003-.01.003-.017l.447-1.754c.098-.363.04-.746-.15-1.066z" fill="#5CB615" fill-rule="nonzero"/></svg>
